exports/GDP-per-capita-in-the-uk-since-1270_v4_850x600.svg

<svg xmlns="http://www.w3.org/2000/svg" version="1.1" style="background-color:#fff;-webkit-font-smoothing:antialiased" width="850" height="600" font-family="'Helvetica Neue',Helvetica,Arial,sans-serif" font-size="18" text-rendering="optimizeLegibility"><g class="ChartTab"><g class="HeaderView"><g opacity=".8" transform="matrix(.27 0 0 .27 778 15)"><a xmlns:xlink="http://www.w3.org/1999/xlink" xlink:href="https://ourworldindata.org" target="_blank"><g><path fill="#1B2543" d="M0 0h211.2v130.1H0z"/><path fill="#E63912" d="M0 112.2h211.2v17.9H0z"/><g><path fill="none" d="M1.2 12.3h210.2v99.2H1.2z"/><path fill="#FFF" d="M37.8 32.2c0 12.7-7.7 19.4-17.1 19.4-9.7 0-16.6-7.5-16.6-18.7 0-11.7 7.3-19.3 17.1-19.3 10.1.1 16.6 7.7 16.6 18.6zm-28.6.6c0 7.9 4.3 14.9 11.8 14.9 7.5 0 11.8-6.9 11.8-15.3 0-7.3-3.8-14.9-11.8-14.9-7.9 0-11.8 7.3-11.8 15.3zM62.7 43.8c0 2.7.1 5.1.2 7.2h-4.3l-.3-4.3h-.1c-1.3 2.1-4 4.9-8.8 4.9-4.2 0-9.1-2.3-9.1-11.6V24.6h4.8v14.6c0 5 1.5 8.4 5.9 8.4 3.2 0 5.5-2.2 6.3-4.4.3-.7.4-1.6.4-2.5V24.6h4.8v19.2zM67.3 32.8c0-3.1-.1-5.8-.2-8.2h4.2l.2 5.2h.2c1.2-3.5 4.1-5.8 7.3-5.8.5 0 .9.1 1.4.2v4.5c-.5-.1-1-.2-1.6-.2-3.4 0-5.8 2.6-6.5 6.2-.1.7-.2 1.4-.2 2.2V51h-4.8V32.8zM95.4 51L86 14.2h5l4.4 18.6c1.1 4.6 2.1 9.2 2.7 12.7h.1c.6-3.7 1.8-8 3-12.8l4.9-18.5h5l4.5 18.7c1 4.4 2 8.7 2.6 12.6h.1c.8-4 1.8-8.1 3-12.7l4.9-18.5h4.9L120.6 51h-5L111 31.9c-1.1-4.7-1.9-8.3-2.4-12h-.1c-.7 3.7-1.5 7.3-2.8 12L100.4 51h-5zM154.9 37.6c0 9.8-6.8 14-13.2 14-7.2 0-12.7-5.2-12.7-13.6 0-8.8 5.8-14 13.1-14 7.7 0 12.8 5.5 12.8 13.6zm-21 .3c0 5.8 3.3 10.1 8 10.1 4.6 0 8-4.3 8-10.3 0-4.5-2.2-10.1-7.9-10.1s-8.1 5.2-8.1 10.3zM158.2 32.8c0-3.1-.1-5.8-.2-8.2h4.2l.2 5.2h.2c1.2-3.5 4.1-5.8 7.3-5.8.5 0 .9.1 1.4.2v4.5c-.5-.1-1-.2-1.6-.2-3.4 0-5.8 2.6-6.5 6.2-.1.7-.2 1.4-.2 2.2V51h-4.8V32.8zM173.5 12.3h4.8V51h-4.8V12.3zM206.5 12.3v31.9c0 2.3.1 5 .2 6.8h-4.3l-.2-4.6h-.2c-1.5 2.9-4.7 5.2-9 5.2-6.4 0-11.3-5.4-11.3-13.4-.1-8.8 5.4-14.2 11.9-14.2 4 0 6.8 1.9 8 4h.1V12.3h4.8zm-4.8 23.1c0-.6-.1-1.4-.2-2a7 7 0 00-6.9-5.6c-5 0-7.9 4.4-7.9 10.2 0 5.3 2.6 9.8 7.8 9.8 3.2 0 6.2-2.1 7.1-5.7.2-.7.2-1.3.2-2.1v-4.6zM42.8 64c.1 1.6-1.1 2.9-3.1 2.9-1.7 0-2.9-1.3-2.9-2.9 0-1.7 1.3-3 3-3 1.9 0 3 1.3 3 3zm-5.4 33.8V71.4h4.8v26.4h-4.8zM47.5 78.6c0-2.7-.1-5-.2-7.1h4.3l.3 4.4h.1c1.3-2.5 4.4-5 8.8-5 3.7 0 9.4 2.2 9.4 11.2v15.8h-4.8V82.6c0-4.3-1.6-7.8-6.1-7.8-3.2 0-5.6 2.2-6.5 4.9-.2.6-.3 1.4-.3 2.2v15.9h-4.8V78.6zM84 61.6c2.9-.4 6.3-.8 10.1-.8 6.8 0 11.7 1.6 14.9 4.6 3.3 3 5.2 7.3 5.2 13.2 0 6-1.9 10.9-5.3 14.3-3.4 3.4-9.1 5.3-16.3 5.3-3.4 0-6.2-.2-8.6-.4V61.6zm4.8 32.5c1.2.2 3 .3 4.8.3 10.2 0 15.7-5.7 15.7-15.6.1-8.7-4.9-14.2-14.9-14.2-2.5 0-4.3.2-5.6.5v29zM132.1 97.8l-.4-3.3h-.2a9.79 9.79 0 01-8.1 3.9c-5.4 0-8.1-3.8-8.1-7.6 0-6.4 5.7-9.9 15.9-9.8v-.5c0-2.2-.6-6.1-6-6.1-2.5 0-5 .8-6.9 2l-1.1-3.2c2.2-1.4 5.4-2.3 8.7-2.3 8.1 0 10.1 5.5 10.1 10.8v9.9c0 2.3.1 4.5.4 6.3h-4.3zm-.7-13.4c-5.3-.1-11.2.8-11.2 5.9 0 3.1 2.1 4.6 4.5 4.6 3.4 0 5.6-2.2 6.4-4.4.2-.5.3-1 .3-1.5v-4.6zM146.6 63.9v7.6h6.9v3.7h-6.9v14.2c0 3.3.9 5.1 3.6 5.1 1.3 0 2.2-.2 2.8-.3l.2 3.6c-.9.4-2.4.7-4.3.7-2.2 0-4-.7-5.2-2-1.4-1.4-1.9-3.8-1.9-6.9V75.1h-4.1v-3.7h4.1v-6.3l4.8-1.2zM171.4 97.8l-.4-3.3h-.2a9.79 9.79 0 01-8.1 3.9c-5.4 0-8.1-3.8-8.1-7.6 0-6.4 5.7-9.9 15.9-9.8v-.5c0-2.2-.6-6.1-6-6.1-2.5 0-5 .8-6.9 2l-1.1-3.2c2.2-1.4 5.4-2.3 8.7-2.3 8.1 0 10.1 5.5 10.1 10.8v9.9c0 2.3.1 4.5.4 6.3h-4.3zm-.7-13.4c-5.3-.1-11.2.8-11.2 5.9 0 3.1 2.1 4.6 4.5 4.6 3.4 0 5.6-2.2 6.4-4.4.2-.5.3-1 .3-1.5v-4.6z"/></g></g></a></g><a href="https://ourworldindata.org/grapher/GDP-per-capita-in-the-uk-since-1270" target="_blank"><text font-size="25.2" x="15" y="35.2" fill="#555"><tspan x="15" y="35.16">GDP per capita in England since 1270</tspan></text></a><text font-size="14.4" x="15" y="53.7" fill="#666"><tspan x="15" y="53.72">Adjusted for inflation and measured in British Pounds in 2013 prices</tspan></text></g><g class="LineChart"><defs><clipPath id="a"><path d="M68 0h830v903.2H68z"/></clipPath></defs><g class="AxisBoxView"><g class="HorizontalAxis" fill="#666" text-anchor="middle" font-size="16.2"><text x="78" y="528.2">1270</text><text x="206.4" y="528.2">1400</text><text x="305.2" y="528.2">1500</text><text x="404" y="528.2">1600</text><text x="502.8" y="528.2">1700</text><text x="601.6" y="528.2">1800</text><text x="700.4" y="528.2">1900</text><text x="815" y="528.2">2016</text></g><g class="VerticalAxis" fill="#666" dominant-baseline="middle" text-anchor="end" font-size="16.2"><text x="73" y="507">£0</text><text x="73" y="435.9">£5,000</text><text x="73" y="364.9">£10,000</text><text x="73" y="293.8">£15,000</text><text x="73" y="222.7">£20,000</text><text x="73" y="151.7">£25,000</text><text x="73" y="80.6">£30,000</text></g><g class="AxisGridLines"><path stroke="#ccc" d="M78 507h737"/><path stroke="#ddd" stroke-dasharray="3,2" d="M78 435.9h737M78 364.9h737M78 293.8h737M78 222.7h737M78 151.7h737M78 80.6h737"/></g></g><g clip-path="url(#a)"><g class="Lines"><g class="key-England_0"><path stroke="#3360a9" stroke-linecap="round" d="M78 496h1l1-1 1 1h1l1-1 1 1 1-1h1l1 2h1l1-1 1 1h4l1-1 1 1h6l1-1 1-1 1 1 1-1 1 1h3l1-1 1 1h4l1-1h5l1 1v1l1-1 1-1h2l1 2 1-1 1-1 1 1 1-1h2l1 1h8l1-1 1-1 1 3 1-1 1-1h2l1-1 1 1 1 1h1l1-1 1 1 1-2 1-2h2l1 1 1-1h6l1 1h1l1-1h2l1 1h1l1 1 1-2 1 1 1 1 1-1 1 1 1 1 1-2 1-1h1l1 2 1-1h1l1-1 1 1 1-2 1 1 1-1 1-1 1 2 1-1 1 1 1-2 1-2 1 3 1-1h2l1 1 1-2v1l1 1h1l1-1h3l1 1h1l1 1h1l1-1h2l1 2 1-2 1-1 1 1 1-1h3l1 1h1l1-1 1-1 1 1 1 1h1l1 1 1-1h4l1-1 1 1 1 1 1 1 1-1h1l1-1 1 2h1l1-3h1l1 2 1-1h1l1-1 1 1h7l1 1 1-1 1 1h2l1-2h1l1 2h3l1-1h1l1 1h3l1-1 1 1 1 1 1-1h1l1-1h2v1l1-1h1l1 1 1-1 1 1h2l1-1h5l1 1 1-1 1-1h1l1 1h2l1-1h5l1-1 1 1h1l1 1 1-1h9l1-1h3l1 2h1l1-1h1l1 1 1-1h2l1 1h1l1-1 1 1 1-1 1 1h3l1-1 1 1h1l1-2 1 1 1 1h1l1 1h1l1-2 1 2h1l1 3 1-2 1-4 1 1h3l1-1h1l1-2 1 2h2l1 1h1l1 1 1-2 1 2 1-2h1l1 2 1-2 1 1 1 1h1l1 2 1-2 1 1 1 2h1l1-1 1-2 1 2 1-1h1l1-1 1-1 1 3h1l1 1h1l1-2 1-2 1 1h1l1-1 1-1 1-1 1 2 1-1 1 2 1 1 1-2 1-1 1 1 1 1 1 1h1l1-1 1 1 1-2h1l1 2 1-3h1l1 3h1l1-2h3l1-2 1 5h2l1-2 1 2 1-1h2l1 1 1-2h2l1 2 1-2 1-1h1l1 3 1-1h1l1 1h1l1-1 1-1 1-2h1l1-1 1 1 1 1 1 1 1 2 1-1h1l1-1 1-3 1 1h1l1-2 1-1 1 2h2l1 1h2l1 1 1-1 1-3 1 2 1-1 1 1 1-2 1 2 1-2 1-1 1 3 1-1 1 1 1-2 1-1 1 1 1-2h1l1-2 1 4 1-4 1 1 1 1h2l1 1 1-2 1-2h1l1 2 1-4 1 1 1 5 1-3 1-2 1 4 1 2 1-2h1l1 1 1-2 1 1 1-1 1-1 1-1h1l1-2 1 1h1l1 1h2l1 1h1l1-1 1 1v-1l1 1 1-2 1-1 1 1 1 1 1-2 1 2 1-1 1 1h1l1-1 1-1 1 1 1 1h1l1-1 1-1h3l1 1 1-1h1l1 1 1-1 1 1 1-2h2l1-1 1-1 1 1h2l1 1h1l1-1h1l1-1 1 1h1l1 1 1-1 1 1h1l1-1 1-1 1 1h1l1-1 1-1 1 1h2l1 1 1-1 1 1 1 1 1-1 1-2h3l1 2 1-3h4l1-2h2l1 1 1 1 1-2 1 1 1-2 1 2h1l1-2 1 1 1 2v-2l1 2 1-3 1 2h1l1 1 1 1 1-3h3l1-1 1-1 1 3 1-2h2l1-1 1-1 1 1h1l1-1 1-2h2l1-1 1-1 1 1 1 1 1 1 1-1 1-2 1-2 1-1 1 1 1-1h1l1 1 1-1 1-1 1-1 1-2 1 1 1-2 1 1h1l1-1 1-1h1l1 1 1-2h1l1-2h1l1 1 1-2h1l1-4 1-2h1l1 1 1-2h1l1 1h1l1 1 1 2 1-4h1l1-1 1-1 1 1 1 2h1l1-2 1-1 1-2h1l1-1 1 3 1 1 1-3 1-1v-2h1l1-3 1-2 1 2 1-2h1l1 2 1-1 1-1 1-1 1-1 1 4 1-2 1-1 1-2 1-1 1-3 1-1 1-5 1-1 1-1 1-2 1 9 1 7 1 8 1-4 1-1 1-3 1-3 1 3 1-6h1l1-2 1 1 1 5h1l1-2 1-5 1-2 1-4 1-3h1l1-4 1-10 1-10 1-2 1-1 1 7 1 6 1 4 1 2 1-3 1-3 1-3 1-4 1-2 1-6 1-5 1-4 1-2 1-2 1-1 1-4 1-8 1-3h1l1-7 1-8 1-3 1-1 1-3 1-9 1-2 1-5 1-6 1-7 1-14 1 5 1 3 1-6 1-5 1-8v-7l1 5 1 1 1-5 1-10 1-4 1-10 1-6 1-14 1-15 1-7 1-2 1 4 1-1 1-7 1-10 1-6 1-7 1-8 1-11 1-10 1-12 1-8 1-6 1-11 1-8 1-9 1-7 1-7 1 5 1 22 1-5 1-2 1-2 1-2 1-11 1-6 1-4" fill="none" stroke-width="1.5"/></g></g></g></g><g class="SourcesFooter" fill="#777"><g class="clickable" fill="#777"><text font-size="12.6" x="15" y="553.3"><tspan x="15" y="553.28">Source: Broadberry, Campbell, Klein, Overton, and van Leeuwen (2015) via Bank of England (2017)</tspan></text></g><text font-size="12.6" x="15" y="567.9"><tspan x="15" y="567.88">Note: Data refers to England until 1700 and the UK from then onwards.</tspan></text><text font-size="12.6" x="15" y="582.5"><tspan x="15" y="582.48"><a target="_blank" href="https://ourworldindata.org/economic-growth" fill="#777">OurWorldInData.org/economic-growth</a> • <a class="cclogo" href="http://creativecommons.org/licenses/by-sa/4.0/deed.en_US" target="_blank" fill="#777">CC BY-SA</a></tspan></text></g></g></svg>

<svg xmlns="http://www.w3.org/2000/svg" version="1.1" style="font-family: 'Helvetica Neue', Helvetica, Arial, sans-serif; font-size: 18px; background-color: white; text-rendering: optimizeLegibility; -webkit-font-smoothing: antialiased;" width="850" height="600"><g class="ChartTab"><g class="HeaderView"><g opacity="0.8" transform="translate(778, 15) scale(0.27)"><a xmlns:xlink="http://www.w3.org/1999/xlink" xlink:href="https://ourworldindata.org" target="_blank"><g><rect x="0" y="0" fill="#1B2543" width="211.2" height="130.1"/><rect x="0" y="112.2" fill="#E63912" width="211.2" height="17.9"/><g><rect x="1.2" y="12.3" fill="none" width="210.2" height="99.2"/><path fill="#FFFFFF" d="M37.8,32.2c0,12.7-7.7,19.4-17.1,19.4c-9.7,0-16.6-7.5-16.6-18.7c0-11.7,7.3-19.3,17.1-19.3 C31.3,13.7,37.8,21.3,37.8,32.2z M9.2,32.8c0,7.9,4.3,14.9,11.8,14.9c7.5,0,11.8-6.9,11.8-15.3c0-7.3-3.8-14.9-11.8-14.9 C13.1,17.5,9.2,24.8,9.2,32.8z"/><path fill="#FFFFFF" d="M62.7,43.8c0,2.7,0.1,5.1,0.2,7.2h-4.3l-0.3-4.3h-0.1c-1.3,2.1-4,4.9-8.8,4.9c-4.2,0-9.1-2.3-9.1-11.6 V24.6h4.8v14.6c0,5,1.5,8.4,5.9,8.4c3.2,0,5.5-2.2,6.3-4.4c0.3-0.7,0.4-1.6,0.4-2.5V24.6h4.8V43.8z"/><path fill="#FFFFFF" d="M67.3,32.8c0-3.1-0.1-5.8-0.2-8.2h4.2l0.2,5.2h0.2c1.2-3.5,4.1-5.8,7.3-5.8c0.5,0,0.9,0.1,1.4,0.2v4.5 c-0.5-0.1-1-0.2-1.6-0.2c-3.4,0-5.8,2.6-6.5,6.2c-0.1,0.7-0.2,1.4-0.2,2.2V51h-4.8V32.8z"/><path fill="#FFFFFF" d="M95.4,51l-9.4-36.8h5l4.4,18.6c1.1,4.6,2.1,9.2,2.7,12.7h0.1c0.6-3.7,1.8-8,3-12.8l4.9-18.5h5l4.5,18.7 c1,4.4,2,8.7,2.6,12.6h0.1c0.8-4,1.8-8.1,3-12.7l4.9-18.5h4.9L120.6,51h-5L111,31.9c-1.1-4.7-1.9-8.3-2.4-12h-0.1 c-0.7,3.7-1.5,7.3-2.8,12L100.4,51H95.4z"/><path fill="#FFFFFF" d="M154.9,37.6c0,9.8-6.8,14-13.2,14c-7.2,0-12.7-5.2-12.7-13.6c0-8.8,5.8-14,13.1-14 C149.8,24,154.9,29.5,154.9,37.6z M133.9,37.9c0,5.8,3.3,10.1,8,10.1c4.6,0,8-4.3,8-10.3c0-4.5-2.2-10.1-7.9-10.1 C136.3,27.6,133.9,32.8,133.9,37.9z"/><path fill="#FFFFFF" d="M158.2,32.8c0-3.1-0.1-5.8-0.2-8.2h4.2l0.2,5.2h0.2c1.2-3.5,4.1-5.8,7.3-5.8c0.5,0,0.9,0.1,1.4,0.2v4.5 c-0.5-0.1-1-0.2-1.6-0.2c-3.4,0-5.8,2.6-6.5,6.2c-0.1,0.7-0.2,1.4-0.2,2.2V51h-4.8V32.8z"/><path fill="#FFFFFF" d="M173.5,12.3h4.8V51h-4.8V12.3z"/><path fill="#FFFFFF" d="M206.5,12.3v31.9c0,2.3,0.1,5,0.2,6.8h-4.3l-0.2-4.6H202c-1.5,2.9-4.7,5.2-9,5.2 c-6.4,0-11.3-5.4-11.3-13.4c-0.1-8.8,5.4-14.2,11.9-14.2c4,0,6.8,1.9,8,4h0.1V12.3H206.5z M201.7,35.4c0-0.6-0.1-1.4-0.2-2 c-0.7-3.1-3.3-5.6-6.9-5.6c-5,0-7.9,4.4-7.9,10.2c0,5.3,2.6,9.8,7.8,9.8c3.2,0,6.2-2.1,7.1-5.7c0.2-0.7,0.2-1.3,0.2-2.1V35.4z"/><path fill="#FFFFFF" d="M42.8,64c0.1,1.6-1.1,2.9-3.1,2.9c-1.7,0-2.9-1.3-2.9-2.9c0-1.7,1.3-3,3-3C41.7,61,42.8,62.3,42.8,64z M37.4,97.8V71.4h4.8v26.4H37.4z"/><path fill="#FFFFFF" d="M47.5,78.6c0-2.7-0.1-5-0.2-7.1h4.3l0.3,4.4h0.1c1.3-2.5,4.4-5,8.8-5c3.7,0,9.4,2.2,9.4,11.2v15.8h-4.8 V82.6c0-4.3-1.6-7.8-6.1-7.8c-3.2,0-5.6,2.2-6.5,4.9c-0.2,0.6-0.3,1.4-0.3,2.2v15.9h-4.8V78.6z"/><path fill="#FFFFFF" d="M84,61.6c2.9-0.4,6.3-0.8,10.1-0.8c6.8,0,11.7,1.6,14.9,4.6c3.3,3,5.2,7.3,5.2,13.2c0,6-1.9,10.9-5.3,14.3 c-3.4,3.4-9.1,5.3-16.3,5.3c-3.4,0-6.2-0.2-8.6-0.4V61.6z M88.8,94.1c1.2,0.2,3,0.3,4.8,0.3c10.2,0,15.7-5.7,15.7-15.6 c0.1-8.7-4.9-14.2-14.9-14.2c-2.5,0-4.3,0.2-5.6,0.5V94.1z"/><path fill="#FFFFFF" d="M132.1,97.8l-0.4-3.3h-0.2c-1.5,2.1-4.3,3.9-8.1,3.9c-5.4,0-8.1-3.8-8.1-7.6c0-6.4,5.7-9.9,15.9-9.8v-0.5 c0-2.2-0.6-6.1-6-6.1c-2.5,0-5,0.8-6.9,2l-1.1-3.2c2.2-1.4,5.4-2.3,8.7-2.3c8.1,0,10.1,5.5,10.1,10.8v9.9c0,2.3,0.1,4.5,0.4,6.3 H132.1z M131.4,84.4c-5.3-0.1-11.2,0.8-11.2,5.9c0,3.1,2.1,4.6,4.5,4.6c3.4,0,5.6-2.2,6.4-4.4c0.2-0.5,0.3-1,0.3-1.5V84.4z"/><path fill="#FFFFFF" d="M146.6,63.9v7.6h6.9v3.7h-6.9v14.2c0,3.3,0.9,5.1,3.6,5.1c1.3,0,2.2-0.2,2.8-0.3l0.2,3.6 c-0.9,0.4-2.4,0.7-4.3,0.7c-2.2,0-4-0.7-5.2-2c-1.4-1.4-1.9-3.8-1.9-6.9V75.1h-4.1v-3.7h4.1v-6.3L146.6,63.9z"/><path fill="#FFFFFF" d="M171.4,97.8l-0.4-3.3h-0.2c-1.5,2.1-4.3,3.9-8.1,3.9c-5.4,0-8.1-3.8-8.1-7.6c0-6.4,5.7-9.9,15.9-9.8v-0.5 c0-2.2-0.6-6.1-6-6.1c-2.5,0-5,0.8-6.9,2l-1.1-3.2c2.2-1.4,5.4-2.3,8.7-2.3c8.1,0,10.1,5.5,10.1,10.8v9.9c0,2.3,0.1,4.5,0.4,6.3 H171.4z M170.7,84.4c-5.3-0.1-11.2,0.8-11.2,5.9c0,3.1,2.1,4.6,4.5,4.6c3.4,0,5.6-2.2,6.4-4.4c0.2-0.5,0.3-1,0.3-1.5V84.4z"/></g></g></a></g><a href="https://ourworldindata.org/grapher/GDP-per-capita-in-the-uk-since-1270" target="_blank"><text font-size="25.20" x="15.0" y="35.2" fill="#555"><tspan x="15" y="35.160000000000004">GDP per capita in England since 1270</tspan></text></a><text font-size="14.40" x="15.0" y="53.7" fill="#666"><tspan x="15" y="53.72">Adjusted for inflation and measured in British Pounds in 2013 prices</tspan></text></g><g class="LineChart"><defs><clipPath id="boundsClip-1"><rect x="67.99600000000001" y="0" width="830" height="903.1999999999999"></rect></clipPath></defs><g class="AxisBoxView"><g class="HorizontalAxis"><text x="78" y="528.1999999999999" fill="#666" text-anchor="middle" font-size="16.2">1270</text><text x="206.4" y="528.1999999999999" fill="#666" text-anchor="middle" font-size="16.2">1400</text><text x="305.2" y="528.1999999999999" fill="#666" text-anchor="middle" font-size="16.2">1500</text><text x="404" y="528.1999999999999" fill="#666" text-anchor="middle" font-size="16.2">1600</text><text x="502.8" y="528.1999999999999" fill="#666" text-anchor="middle" font-size="16.2">1700</text><text x="601.6" y="528.1999999999999" fill="#666" text-anchor="middle" font-size="16.2">1800</text><text x="700.4" y="528.1999999999999" fill="#666" text-anchor="middle" font-size="16.2">1900</text><text x="815" y="528.1999999999999" fill="#666" text-anchor="middle" font-size="16.2">2016</text></g><g class="VerticalAxis"><text x="73.00" y="507" fill="#666" dominant-baseline="middle" text-anchor="end" font-size="16.2">£0</text><text x="73.00" y="435.9" fill="#666" dominant-baseline="middle" text-anchor="end" font-size="16.2">£5,000</text><text x="73.00" y="364.9" fill="#666" dominant-baseline="middle" text-anchor="end" font-size="16.2">£10,000</text><text x="73.00" y="293.8" fill="#666" dominant-baseline="middle" text-anchor="end" font-size="16.2">£15,000</text><text x="73.00" y="222.7" fill="#666" dominant-baseline="middle" text-anchor="end" font-size="16.2">£20,000</text><text x="73.00" y="151.7" fill="#666" dominant-baseline="middle" text-anchor="end" font-size="16.2">£25,000</text><text x="73.00" y="80.6" fill="#666" dominant-baseline="middle" text-anchor="end" font-size="16.2">£30,000</text></g><g class="AxisGridLines"><line x1="78.00" y1="507" x2="815.00" y2="507" stroke="#ccc"></line><line x1="78.00" y1="435.9" x2="815.00" y2="435.9" stroke="#ddd" stroke-dasharray="3,2"></line><line x1="78.00" y1="364.9" x2="815.00" y2="364.9" stroke="#ddd" stroke-dasharray="3,2"></line><line x1="78.00" y1="293.8" x2="815.00" y2="293.8" stroke="#ddd" stroke-dasharray="3,2"></line><line x1="78.00" y1="222.7" x2="815.00" y2="222.7" stroke="#ddd" stroke-dasharray="3,2"></line><line x1="78.00" y1="151.7" x2="815.00" y2="151.7" stroke="#ddd" stroke-dasharray="3,2"></line><line x1="78.00" y1="80.6" x2="815.00" y2="80.6" stroke="#ddd" stroke-dasharray="3,2"></line></g></g><g clip-path="url(#boundsClip-1)"><g class="Lines"><rect x="78" y="77" width="737" height="430" fill="rgba(255,255,255,0)" opacity="0"></rect><g class="key-England_0"><path stroke="#3360a9" stroke-linecap="round" d="M78 496L79 496L80 495L81 496L82 496L83 495L84 496L85 495L86 495L87 497L88 497L89 496L90 497L91 497L92 497L93 497L94 497L95 496L96 497L97 497L98 497L99 497L100 497L101 497L102 497L103 496L104 495L105 496L106 495L107 496L108 496L109 496L110 496L111 495L112 496L113 496L114 496L115 496L116 496L117 495L118 495L119 495L120 495L121 495L122 495L123 496L123 497L124 496L125 495L126 495L127 495L128 497L129 496L130 495L131 496L132 495L133 495L134 495L135 496L136 496L137 496L138 496L139 496L140 496L141 496L142 496L143 496L144 495L145 494L146 497L147 496L148 495L149 495L150 495L151 494L152 495L153 496L154 496L155 495L156 496L157 494L158 492L159 492L160 492L161 493L162 492L163 492L164 492L165 492L166 492L167 492L168 492L169 493L170 493L171 492L172 492L173 492L174 493L175 493L176 494L177 492L178 493L179 494L180 493L181 494L182 495L183 493L184 492L185 492L186 494L187 493L188 493L189 492L190 493L191 491L192 492L193 491L194 490L195 492L196 491L197 492L198 490L199 488L200 491L201 490L202 490L203 490L204 491L205 489L205 490L206 491L207 491L208 490L209 490L210 490L211 490L212 491L213 491L214 492L215 492L216 491L217 491L218 491L219 493L220 491L221 490L222 491L223 490L224 490L225 490L226 490L227 491L228 491L229 490L230 489L231 490L232 491L233 491L234 492L235 491L236 491L237 491L238 491L239 491L240 490L241 491L242 492L243 493L244 492L245 492L246 491L247 493L248 493L249 490L250 490L251 492L252 491L253 491L254 490L255 491L256 491L257 491L258 491L259 491L260 491L261 491L262 491L263 492L264 491L265 492L266 492L267 492L268 490L269 490L270 492L271 492L272 492L273 492L274 491L275 491L276 492L277 492L278 492L279 492L280 491L281 492L282 493L283 492L284 492L285 491L286 491L287 491L287 492L288 491L289 491L290 492L291 491L292 492L293 492L294 492L295 491L296 491L297 491L298 491L299 491L300 491L301 492L302 491L303 490L304 490L305 491L306 491L307 491L308 490L309 490L310 490L311 490L312 490L313 490L314 489L315 490L316 490L317 491L318 490L319 490L320 490L321 490L322 490L323 490L324 490L325 490L326 490L327 490L328 489L329 489L330 489L331 489L332 491L333 491L334 490L335 490L336 491L337 490L338 490L339 490L340 491L341 491L342 490L343 491L344 490L345 491L346 491L347 491L348 491L349 490L350 491L351 491L352 489L353 490L354 491L355 491L356 492L357 492L358 490L359 492L360 492L361 495L362 493L363 489L364 490L365 490L366 490L367 490L368 489L369 489L369 489L370 487L371 489L372 489L373 489L374 490L375 490L376 491L377 489L378 491L379 489L380 489L381 491L382 489L383 490L384 491L385 491L386 493L387 491L388 492L389 494L390 494L391 493L392 491L393 493L394 492L395 492L396 491L397 490L398 493L399 493L400 494L401 494L402 492L403 490L404 491L405 491L406 490L407 489L408 488L409 490L410 489L411 491L412 492L413 490L414 489L415 490L416 491L417 492L418 492L419 491L420 492L421 490L422 490L423 492L424 489L425 489L426 492L427 492L428 490L429 490L430 490L431 490L432 488L433 493L434 493L435 493L436 491L437 493L438 492L439 492L440 492L441 493L442 491L443 491L444 491L445 493L446 491L447 490L448 490L449 493L450 492L450 492L451 492L452 493L453 493L454 492L455 491L456 489L457 489L458 488L459 489L460 490L461 491L462 493L463 492L464 492L465 491L466 488L467 489L468 489L469 487L470 486L471 488L472 488L473 488L474 489L475 489L476 489L477 490L478 489L479 486L480 488L481 487L482 488L483 486L484 488L485 486L486 485L487 488L488 487L489 488L490 486L491 485L492 486L493 484L494 484L495 482L496 486L497 482L498 483L499 484L500 484L501 484L502 485L503 483L504 481L505 481L506 483L507 479L508 480L509 485L510 482L511 480L512 484L513 486L514 484L515 484L516 485L517 483L518 484L519 483L520 482L521 481L522 481L523 479L524 480L525 480L526 481L527 481L528 481L529 482L530 482L531 481L532 482L532 481L533 482L534 480L535 479L536 480L537 481L538 479L539 481L540 480L541 481L542 481L543 480L544 479L545 480L546 481L547 481L548 480L549 479L550 479L551 479L552 479L553 480L554 479L555 479L556 480L557 479L558 480L559 478L560 478L561 478L562 477L563 476L564 477L565 477L566 477L567 478L568 478L569 477L570 477L571 476L572 477L573 477L574 478L575 477L576 478L577 478L578 477L579 476L580 477L581 477L582 476L583 475L584 476L585 476L586 476L587 477L588 476L589 477L590 478L591 477L592 475L593 475L594 475L595 475L596 477L597 474L598 474L599 474L600 474L601 474L602 472L603 472L604 472L605 473L606 474L607 472L608 473L609 471L610 473L611 473L612 471L613 472L614 474L614 472L615 474L616 471L617 473L618 473L619 474L620 475L621 472L622 472L623 472L624 472L625 471L626 470L627 473L628 471L629 471L630 471L631 470L632 469L633 470L634 470L635 469L636 467L637 467L638 467L639 466L640 465L641 466L642 467L643 468L644 467L645 465L646 463L647 462L648 463L649 462L650 462L651 463L652 462L653 461L654 460L655 458L656 459L657 457L658 458L659 458L660 457L661 456L662 456L663 457L664 455L665 455L666 453L667 453L668 454L669 452L670 452L671 448L672 446L673 446L674 447L675 445L676 445L677 446L678 446L679 447L680 449L681 445L682 445L683 444L684 443L685 444L686 446L687 446L688 444L689 443L690 441L691 441L692 440L693 443L694 444L695 441L696 440L696 438L697 438L698 435L699 433L700 435L701 433L702 433L703 435L704 434L705 433L706 432L707 431L708 435L709 433L710 432L711 430L712 429L713 426L714 425L715 420L716 419L717 418L718 416L719 425L720 432L721 440L722 436L723 435L724 432L725 429L726 432L727 426L728 426L729 424L730 425L731 430L732 430L733 428L734 423L735 421L736 417L737 414L738 414L739 410L740 400L741 390L742 388L743 387L744 394L745 400L746 404L747 406L748 403L749 400L750 397L751 393L752 391L753 385L754 380L755 376L756 374L757 372L758 371L759 367L760 359L761 356L762 356L763 349L764 341L765 338L766 337L767 334L768 325L769 323L770 318L771 312L772 305L773 291L774 296L775 299L776 293L777 288L778 280L778 273L779 278L780 279L781 274L782 264L783 260L784 250L785 244L786 230L787 215L788 208L789 206L790 210L791 209L792 202L793 192L794 186L795 179L796 171L797 160L798 150L799 138L800 130L801 124L802 113L803 105L804 96L805 89L806 82L807 87L808 109L809 104L810 102L811 100L812 98L813 87L814 81L815 77" fill="none" stroke-width="1.5"></path></g></g></g></g><g style="fill: #777;" class="SourcesFooter"><g style="fill: #777;" class="clickable"><text font-size="12.60" x="15.0" y="553.3"><tspan x="15" y="553.2800000000001">Source: Broadberry, Campbell, Klein, Overton, and van Leeuwen (2015) via Bank of England (2017)</tspan></text></g><text font-size="12.60" x="15.0" y="567.9"><tspan x="15" y="567.8800000000001">Note: Data refers to England until 1700 and the UK from then onwards.</tspan></text><text font-size="12.60" x="15.0" y="582.5"><tspan x="15" y="582.4800000000001"><a target='_blank' style='fill: #777;' href='https://ourworldindata.org/economic-growth'>OurWorldInData.org/economic-growth</a> • <a style="fill: #777;" class="cclogo" href="http://creativecommons.org/licenses/by-sa/4.0/deed.en_US" target="_blank">CC BY-SA</a></tspan></text></g></g></svg>
